src/lib/packages/icons/src/assets/line/tree.svg

<svg width="24" height="24" viewBox="0 0 24 24" fill="none" xmlns="http://www.w3.org/2000/svg">
<path d="M18.304 13.36L15.846 10.201C16.373 10.092 16.828 9.76104 17.071 9.26204C17.369 8.65104 17.295 7.93901 16.877 7.40401L13.388 2.92903C12.716 2.06703 11.284 2.06703 10.612 2.92903L7.12297 7.40401C6.70497 7.94001 6.63097 8.65204 6.92897 9.26204C7.17297 9.76104 7.62698 10.092 8.15398 10.201L5.695 13.361C5.198 14.001 5.11099 14.851 5.46599 15.577C5.82099 16.301 6.54198 16.751 7.34798 16.751H11.25V21C11.25 21.414 11.586 21.75 12 21.75C12.414 21.75 12.75 21.414 12.75 21V16.75H16.652C17.458 16.75 18.179 16.3 18.534 15.576C18.889 14.85 18.802 14.001 18.304 13.36ZM8.30599 8.32503L11.795 3.84999C11.863 3.76199 11.953 3.74904 12.001 3.74904C12.049 3.74904 12.138 3.76199 12.207 3.84999L15.696 8.32503C15.784 8.43803 15.752 8.54704 15.725 8.60304C15.698 8.65804 15.632 8.75002 15.491 8.75002H8.51299C8.37099 8.75002 8.30498 8.65804 8.27898 8.60304C8.24998 8.54804 8.21799 8.43803 8.30599 8.32503ZM17.187 14.916C17.138 15.016 16.987 15.25 16.652 15.25H7.34798C7.01298 15.25 6.86298 15.017 6.81298 14.916C6.76298 14.815 6.66999 14.55 6.87899 14.28L10.015 10.249H13.984L17.119 14.279C17.329 14.55 17.236 14.815 17.187 14.916Z" fill="currentColor"/>
</svg>

<svg xmlns="http://www.w3.org/2000/svg" width="24" height="24" fill="none"><path fill="currentColor" d="m18.304 13.36-2.458-3.159a1.75 1.75 0 0 0 1.031-2.797l-3.489-4.475c-.672-.862-2.104-.862-2.776 0L7.123 7.404a1.751 1.751 0 0 0-.194 1.858c.244.499.698.83 1.225.939l-2.459 3.16a2.092 2.092 0 0 0-.229 2.216 2.083 2.083 0 0 0 1.882 1.174h3.902V21a.75.75 0 0 0 1.5 0v-4.25h3.902c.806 0 1.527-.45 1.882-1.174a2.09 2.09 0 0 0-.23-2.216ZM8.306 8.325l3.489-4.475a.255.255 0 0 1 .206-.101c.048 0 .137.013.206.101l3.489 4.475a.254.254 0 0 1 .029.278.25.25 0 0 1-.234.147H8.513a.249.249 0 0 1-.234-.147.249.249 0 0 1 .027-.278Zm8.881 6.591c-.049.1-.2.334-.535.334H7.348a.581.581 0 0 1-.535-.334.587.587 0 0 1 .066-.636l3.136-4.031h3.969l3.135 4.03a.59.59 0 0 1 .068.637Z"/></svg>
